src/16/actions/black_sum.svg

<svg xmlns="http://www.w3.org/2000/svg" viewBox="0 0 16 16">
  <defs id="defs3051">
    <style type="text/css" id="current-color-scheme">
      .ColorScheme-Text {
        color:#5d656b;
      }
      </style>
  </defs>
 <path style="fill:currentColor;fill-opacity:1;stroke:none" 
     d="M 2 2 L 2 2.03125 L 2 3 L 4.75 8 L 2 13 L 2 13.96875 L 2 14 L 2.0625 14 L 2.65625 14 L 9 14 L 14 14 L 14 13 L 14 12 L 13 12 L 13 13 L 3.21875 13 L 5.875 8.21875 L 6 8 L 5.875 7.78125 L 3.21875 3 L 13 3 L 13 4 L 14 4 L 14 3 L 14 2 L 7 2 L 2.65625 2 L 2.0625 2 L 2 2 z "
     class="ColorScheme-Text"
     />
</svg>

<svg xmlns="http://www.w3.org/2000/svg" viewBox="0 0 16 16"><path d="M2 2v1l2.75 5L2 13v1h12v-2h-1v1H3.219l2.656-4.781L6 8l-.125-.219L3.219 3H13v1h1V2H2z" fill="currentColor" color="#5d656b"/></svg>
